img/svg/play-video.svg

<svg width="24" height="24" viewBox="0 0 24 24" fill="none" xmlns="http://www.w3.org/2000/svg">
<path d="M15.5992 12.8094L15.0536 11.9714L15.0397 11.9804L15.0261 11.99L15.5992 12.8094ZM15.5992 11.4332L15.0063 12.2385L15.0509 12.2713L15.0989 12.2991L15.5992 11.4332ZM10.0838 7.37196L10.6768 6.56671L10.6485 6.54594L10.6189 6.52719L10.0838 7.37196ZM8.92754 7.97856L9.92753 7.97567L9.92751 7.96691L9.92733 7.95816L8.92754 7.97856ZM8.95066 15.9563L7.95067 15.9592L7.95075 15.9875L7.95243 16.0157L8.95066 15.9563ZM10.1493 16.6211L10.6335 17.496L10.6795 17.4706L10.7225 17.4405L10.1493 16.6211ZM11.9999 20.6C7.25025 20.6 3.3999 16.7496 3.3999 12H1.3999C1.3999 17.8542 6.14568 22.6 11.9999 22.6V20.6ZM20.5999 12C20.5999 16.7496 16.7495 20.6 11.9999 20.6V22.6C17.8541 22.6 22.5999 17.8542 22.5999 12H20.5999ZM11.9999 3.39999C16.7495 3.39999 20.5999 7.25035 20.5999 12H22.5999C22.5999 6.14578 17.8541 1.39999 11.9999 1.39999V3.39999ZM11.9999 1.39999C6.14568 1.39999 1.3999 6.14578 1.3999 12H3.3999C3.3999 7.25035 7.25025 3.39999 11.9999 3.39999V1.39999ZM16.1448 13.6475C16.5792 13.3647 17.1283 12.8603 17.1272 12.1001C17.1262 11.3174 16.549 10.8271 16.0996 10.5674L15.0989 12.2991C15.2035 12.3595 15.2228 12.391 15.2082 12.3724C15.1866 12.3449 15.1274 12.2501 15.1272 12.1028C15.1271 11.9592 15.1831 11.8746 15.1919 11.8628C15.1961 11.857 15.1654 11.8986 15.0536 11.9714L16.1448 13.6475ZM16.1922 10.628L10.6768 6.56671L9.49086 8.1772L15.0063 12.2385L16.1922 10.628ZM10.6189 6.52719C10.1483 6.22908 9.48744 6.05827 8.86243 6.3501C8.18218 6.66772 7.91454 7.35194 7.92774 7.99897L9.92733 7.95816C9.92613 7.8996 9.93832 7.91853 9.90757 7.97738C9.87291 8.04368 9.80522 8.11717 9.70857 8.1623C9.52261 8.24912 9.44758 8.15269 9.54868 8.21673L10.6189 6.52719ZM7.92754 7.98146L7.95067 15.9592L9.95066 15.9534L9.92753 7.97567L7.92754 7.98146ZM7.95243 16.0157C7.98424 16.55 8.16999 17.2623 8.84042 17.6204C9.50051 17.9729 10.1878 17.7427 10.6335 17.496L9.66511 15.7461C9.566 15.801 9.52703 15.804 9.54268 15.8019C9.56634 15.7986 9.664 15.7929 9.78261 15.8562C9.90289 15.9205 9.95495 16.0078 9.96757 16.0346C9.97589 16.0524 9.95611 16.0181 9.94889 15.8968L7.95243 16.0157ZM10.7225 17.4405L16.1723 13.6289L15.0261 11.99L9.5762 15.8016L10.7225 17.4405Z" fill="#F2F4F6"/>
</svg>

<svg width="24" height="24" viewBox="0 0 24 24" fill="none" xmlns="http://www.w3.org/2000/svg"><path d="M15.6 12.81l-.546-.839-.014.01-.014.009.573.82zm0-1.377l-.594.806.045.032.048.028.5-.866zm-5.516-4.061l.593-.805-.028-.021-.03-.019-.535.845zm-1.156.607l1-.003v-.018l-1 .02zm.023 7.977l-1 .003v.029l.001.028.999-.06zm1.198.665l.485.875.046-.025.043-.03-.574-.82zM12 20.6A8.6 8.6 0 013.4 12h-2c0 5.854 4.747 10.6 10.6 10.6v-2zm8.6-8.6a8.6 8.6 0 01-8.6 8.6v2c5.855 0 10.6-4.746 10.6-10.6h-2zM12 3.4a8.6 8.6 0 018.6 8.6h2c0-5.854-4.745-10.6-10.6-10.6v2zm0-2C6.147 1.4 1.4 6.146 1.4 12h2A8.6 8.6 0 0112 3.4v-2zm4.146 12.248c.434-.283.983-.788.982-1.548 0-.783-.578-1.273-1.027-1.533L15.099 12.3c.104.06.124.092.11.073a.452.452 0 01-.082-.27c0-.143.056-.227.065-.24.004-.005-.027.037-.138.11l1.09 1.676zm.047-3.02l-5.515-4.061-1.186 1.61 5.515 4.062 1.186-1.611zm-5.573-4.1c-.47-.299-1.132-.47-1.757-.178-.68.318-.947 1.002-.934 1.649l2-.04c-.002-.06.01-.04-.02.018a.434.434 0 01-.2.185c-.185.087-.26-.01-.16.055l1.07-1.69zM7.928 7.98l.023 7.978 2-.006-.023-7.977-2 .005zm.024 8.035c.032.534.218 1.246.888 1.604.66.353 1.348.123 1.793-.124l-.968-1.75c-.099.055-.138.058-.122.056a.42.42 0 01.24.054.43.43 0 01.185.179c.008.017-.012-.017-.02-.138l-1.996.119zm2.77 1.425l5.45-3.812-1.146-1.639-5.45 3.812 1.146 1.639z" fill="#F2F4F6"/></svg>
